src/assets/filled/Google1.svg

<svg width="24" height="24" viewBox="0 0 24 24"  xmlns="http://www.w3.org/2000/svg">
<path d="M21.74 11.07C21.69 10.56 21.26 10.18 20.75 10.18H13.2C12.65 10.18 12.2 10.63 12.2 11.18V12.89C12.2 13.44 12.65 13.89 13.2 13.89H17.71C17.6 14.81 17 16.2 15.67 17.13C14.82 17.72 13.69 18.13 12.2 18.13C12.13 18.13 12.07 18.13 12 18.12C9.44995 18.04 7.28996 16.33 6.50996 13.98C6.29996 13.35 6.17995 12.69 6.17995 12C6.17995 11.31 6.29995 10.64 6.49995 10.02C6.55995 9.83999 6.62995 9.66001 6.70995 9.48001C7.62995 7.41001 9.63995 5.95 12 5.88C12.06 5.87 12.13 5.87 12.2 5.87C13.63 5.87 14.7 6.33999 15.45 6.85999C15.84 7.12999 16.36 7.06999 16.7 6.73999L18.09 5.38C18.53 4.95 18.49 4.21999 17.99 3.85999C16.4 2.68999 14.46 2 12.2 2C12.13 2 12.07 2.00001 12 2.01001C8.16995 2.08001 4.87995 4.30001 3.26995 7.51001C2.58995 8.87001 2.19995 10.39 2.19995 12C2.19995 13.61 2.58995 15.13 3.26995 16.49H3.27995C4.88995 19.7 8.17995 21.92 12 21.99C12.07 22 12.13 22 12.2 22C14.9 22 17.17 21.11 18.82 19.58C20.71 17.83 21.8 15.27 21.8 12.22C21.8 11.79 21.78 11.42 21.74 11.07Z" />
</svg>

<?xml version="1.0" encoding="UTF-8"?>
<svg width="24" height="24" viewBox="0 0 24 24" xmlns="http://www.w3.org/2000/svg">
 <path d="m21.74 11.07c-0.05-0.51-0.48-0.89-0.99-0.89h-7.55c-0.55 0-1 0.45-1 1v1.71c0 0.55 0.45 1 1 1h4.51c-0.11 0.92-0.71 2.31-2.04 3.24-0.85 0.59-1.98 1-3.47 1-0.07 0-0.13 0-0.2-0.01-2.55-0.08-4.71-1.79-5.49-4.14-0.21-0.63-0.33001-1.29-0.33001-1.98s0.12-1.36 0.32-1.98c0.06-0.18001 0.13-0.35999 0.21-0.53999 0.92-2.07 2.93-3.53 5.29-3.6 0.06-0.01 0.13-0.01 0.2-0.01 1.43 0 2.5 0.46999 3.25 0.98999 0.39 0.27 0.91 0.21 1.25-0.12l1.39-1.36c0.44-0.43 0.4-1.16-0.1-1.52-1.59-1.17-3.53-1.86-5.79-1.86-0.07 0-0.13 1e-5 -0.2 0.01001-3.83 0.07-7.12 2.29-8.73 5.5-0.68 1.36-1.07 2.88-1.07 4.49s0.39 3.13 1.07 4.49h0.01c1.61 3.21 4.9 5.43 8.72 5.5 0.07 0.01 0.13 0.01 0.2 0.01 2.7 0 4.97-0.89 6.62-2.42 1.89-1.75 2.98-4.31 2.98-7.36 0-0.43-0.02-0.8-0.06-1.15z"/>
</svg>
